X:1
T:The Waggoner
M:6/8
L:1/4
K:D
 D D/2 D F/2| A, A,/2 A, A,/2| D D/2 D E/2| F3/2 F F/2| G F/2 G B/2|\
 A F/2 D E/2| F- D/2 E C/2| C3|

